X: 174
T: Mermaid, The
M:4/4
R:reel
L:1/8
Z:added by Alf warnock alf0@rogers.com - www.alfwarnock.info/alfs
K:D
A2|"D"ff2e d2cd|"G"edcB "D"A2AA|"G"B2d2 "A7"cdec|"D"d6"A7"AA|
"D"ff2e d2cd|"G"edcB "D"A2AA|"G"B2dd "A7"cdec|"D"d6AA|
%%text Chorus
"D"A3A "G"B2A2|"D"d6de|f3f a2f2|"A7"e6e2|
"D"f2f2 dd2f|"G"edcB "D"A2AA|"G"B2dd "A7"cdec|
"D"defg a2AA|"G"B2dd "A7"cdec|"D"d6:|

